X:276
T: Faraway Wedding
N: O'Farrell's Pocket Companion v.3 (Sky ed. p.126)
N: "Irish"
M: 6/8
L: 1/8
R: jig
Q: 320
K: D
A| FDD ADD| FDD AGF| GEE BEE| GEE BAG|
FDD ADD| FDD AGF| G2AB2A| BdF E2 :|
D| FGA dcd| FDD AGF| GEE BEE| GEE BAG|
FGA dcd| FDD AGF| G2AB2A| BdF E2 :|
